X:1
T:Title
%%score { ( 1 4 ) | ( 2 3 ) } { ( 5 7 ) | ( 6 8 ) }
L:1/8
Q:1/4=60
M:6/8
K:A
V:1 treble nm="I." snm="I."
V:4 treble 
V:2 bass 
V:3 bass 
V:5 treble nm="II." snm="II."
V:7 treble 
V:6 bass 
V:8 bass 
V:1
"^Adagio"!p! c>dc (cfa) | (aB).g z (B2- | B/A/) f2- f(Gd) | (F2 ^E/4F/4G/4F/4) E z z | %4
 d>=ed({/de)} f>ed | (^B3 c) z z | (c/=B/)(^A/B/)(A/B/) (=a/g/)(f/^e/)(d/c/) | (B2 ^A) =A z z | %8
 =G>AG G2 G | .=G.B.d .=g.b.d' | F>GF ([FA]2 [^EG]) || F2 z z2 z | z6 | z6 | z6 | z6 | z6 | z6 | %18
 z6 | z7/4 c/4 (d/4c/4^B/4c/4) a>gf | .^e.=e.^d .=d.c.c | cz/>c/ (d/4c/4^B/4c/4) a>gf | %22
 (f/^e/).e/.=e/.^d/.=d/ (d/c/).c/.c/.c/.c/ | cz/>c/ (d/4c/4^B/4c/4) a>gf | (f/=e/)ee (efd) | %25
 cze e>dc | (Bdf) azc | (e>cB) z/ E/G/B/e/B/ | d=c z z/ E/A/c/e/c/ | ^AB z z Ee' | %30
 (e'2 ^d') z3/2 (A/=c/A/) | e2 z z3/2 (a/=c'/a/) | e'2 z z3/2 (A/=c/A/) | %33
 (.e.e.e) (^d/e/f/e/=d/B/) | A2 z z2 z | z6 | z6 | z2 z z/ (^A/B/c/=d/^d/) | %38
!f! e3 c2 (=d/4c/4B/4c/4) | ddd d z z | z (ca) z/ (B/c/d/e/f/) | (A2 c/B/) A2 z | %42
 z2 z z/4 (b/4d'/4c'/4 b/4a/4g/4f/4 e/4d/4c/4B/4) | %43
 z2 z z/4 (c'/4e'/4d'/4 c'/4b/4a/4g/4 f/4e/4d/4c/4) | (BdG) A/(A/G/A/B/c/) | (e/^d/=dc) B z z | %46
 !turn!e2 f/d/ c z z | (B2 f) (f3/2g/4a/4 g/.f/) | e e'2- e'/c'/a/e/c/A/ | !trill(!TB6({AB} | %50
 A2) z z2 z | z6 |!p! c>dc (cfa) | (aB).g z (B2- | B/A/) f2- f(Gd) | (F2 ^E/4F/4G/4F/4) E z z | %56
 d>=ed({/de)} f>ed | (^B3 c) z z | (c/=B/)(^A/B/)(A/B/) (=a/g/)(f/^e/)(d/c/) | (B2 ^A) =A z z | %60
 =G>AG G2 G | .=G.B.d .=g.b.d' | F>GF ([FA]2 [^EG]) | F6 | =G>AG G=G,G, | =G,3 d'2 =G | %66
 F>^GF ([FA]2 [^EG]) | F2 z z2 z | z6 | z6 | z6 | z6 | z6 | z6 | z6 | z2 z{/A} a3 | %76
 (b/a/)(a/g/)(g/f/) (f/^e/)(e/f/)(f/g/) | c3 (c'3- | c'/d'/4c'/4 ba) (!turn!gab) | ^e2 c a3 | %80
 ^d'3 g3 | c'3 f3 | b3/2c'/4d'/4 c'/4b/4a/4g/4 f/^e/be | f2 z z2 z | f3 A3 | G3- G2 d' | c'3 ^e3 | %87
 f2 z z2 z | f3 A,3 | =G,3- G,2 d' | c'3 ^e3 | f2 z z2 z | z2 z z/ (c/c'/).c'/.c'/.c'/ | %93
 (c'>af) z2 z | z2 z z/ (c/c'/).c'/.c'/.c'/ | (c'>af) z2 z | %96
 z/ (c/c'/).c'/.c'/.c'/!p! .c'/.c'/.c'/.c'/.c'/.c'/ | f z!pp! ([Aa] [Ff]) z ([Aa] | %98
 [Ff]) z z z2 z |] %99
V:2
 [F,A,]2 [F,A,] [F,A,]2 [F,C] | [F,D]3 ^E,, z [^E,C] | [F,C]2 [A,,C,] D,2 B, | %3
 ([C,-A,]3 [C,G,]) z z | [F,A,]2 [F,A,] [G,B,]2 [G,B,] | [A,E]2 [A,E] [F,A,]2 [F,A,] | %6
 [^D,A,]2 [D,A,] [^E,G,]2 [E,G,] | [F,C]2 [F,C] [=D,F,]2 [D,F,] | %8
 [B,,D,=G,]2 [B,,D,G,] [B,,D,G,]2 [B,,D,G,] | [B,,D,=G,]2 z z2 z | [C,A,]2 [C,A,] [C,C]2 [C,B,] || %11
 [F,A,] z z F, z z | F, z z G, z z | A, z z A,, z z | B,, z z B, z z | C z z!f! F, z z | %16
 ^B,, z z =B,, z z | ^A,,3 (B,,=G,F,) | (^E,C,F,) (D,B,,C,) | F,, z [F,A,] [F,A,]2 [F,A,] | %20
 [G,B,]2 [F,A,] [^E,G,]2 [E,G,] | [F,A,]2 [F,A,] [F,A,]2 [F,A,] | [G,B,]2 [F,A,] [^E,G,]2 [E,G,] | %23
 [F,A,]2 [F,A,] [F,A,]2 [F,A,] | [G,B,]2 [G,B,] [G,B,]2 [G,B,] | A,2 A, [C,A,]2 [C,A,] | %26
 [D,F,]2 [D,F,] [^D,F,]2 [D,F,] | [E,A,]2 [E,G,] [E,G,]2 [E,G,] | [E,A,]2 [E,A,] [E,A,]2 [E,A,] | %29
 [E,G,]2 [E,G,] [E,G,]2 [E,G,] | [=F,A,]2 [F,A,] [F,A,]2 [F,A,] | (E,G,B, E,A,=C) | %32
 (E,G,B, E,A,=C) | E,2 z z2 z | A,2!p! A, A,2 A, | G,2 G, G,2 E, | A,2 z z2 z | E,E,E, E, z z | %38
 (3E,/A,/C/ (3E/C/A,/ (3E,/A,/C/ (3E,/A,/C/ (3E/C/A,/ (3E,/A,/C/ | %39
 (3E,/G,/B,/ (3E/B,/G,/ (3E,/G,/B,/ (3E,/G,/B,/ (3E/B,/G,/ (3E,/G,/B,/ | [F,A,]2 z [D,F,B,]2 z | %41
 (C2 D) [A,C]2 z | z6 | z2 z z2 [F,A,] | [D,F,]2 [E,D] [A,C]2 z | z E2 [E,G,] z z | %46
 ([A,,C,][C,E,][E,G,]) [F,A,] z z | D,2 z ^D,2 z | E,2 z E,2 z | E,2 z E,2 z | A,, z z B,, z z | %51
 C, z z C, z z | [F,A,]2 [F,A,] [F,A,]2 [F,C] | [F,D]3 ^E,, z [^E,C] | [F,C]2 [A,,C,] D,2 B, | %55
 ([C,-A,]3 [C,G,]) z z | [F,A,]2 [F,A,] [G,B,]2 [G,B,] | [A,E]2 [A,E] [F,A,]2 [F,A,] | %58
 [^D,A,]2 [D,A,] [^E,G,]2 [E,G,] | [F,C]2 [F,C] [=D,F,]2 [D,F,] | %60
 [B,,D,=G,]2 [B,,D,G,] [B,,D,G,]2 [B,,D,G,] | [B,,D,=G,]2 z z2 z | [C,A,]2 [C,A,] [C,C]2 [C,B,] | %63
 [D,A,]6 | [B,,D,]2 [B,,D,] [B,,D,]2 [B,,D,] | [B,,D,]2 z z2 z | [C,A,]2 [C,A,] [C,C]2 [C,B,] | %67
 [F,A,] z z F, z z | F, z z G, z z | A, z z A,, z z | B,, z z B, z z | C z z!f! F, z z | %72
 ^B,, z z =B,, z z | ^A,,3 (B,,=G,F,) | (^E,C,F,) (D,B,,C,) | F,/A,/C/A,/C/A,/ F,/A,/C/A,/C/A,/ | %76
 F,/A,/C/A,/C/A,/ G,/B,/C/B,/C/B,/ | A,/B,/^E/B,/E/B,/ A,/C/E/C/E/C/ | %78
 B,/D/F/D/F/D/ B,/D/F/D/F/D/ | z/ C,/^E,/G,/C/C,/ C2 z | z/ C,,/^D,,/F,,/C,/C,,/ C,2 z | %81
 z/ C,/F,/^A,/C/C,/ C2 z | z/ C,,/F,,/G,,/C,/C,,/ C,2 z | F,2 z z2 z | D,2 z z2 z | B,,2 z z2 z | %86
 C,2 z z2 z | F,2 z z2 z | D,2 z z2 z | B,,2 z z2 z | C,2 z z2 z | F,2 z A,,2 z | B,,2 z C,2 z | %93
 A,,2 z D,2 z | B,,2 z C,2 z | A,,2 z ^B,,2 z | C,2 z z2 z | F, z z F, z z | F, z z z2 z |] %99
V:3
 x6 | x6 | x3 B,,3 | x6 | x6 | x6 | x6 | x6 | x6 | x6 | x6 || x6 | x6 | x6 | x6 | x6 | x6 | x6 | %18
 x6 | x6 | x6 | x6 | x6 | x6 | x6 | x6 | x6 | x6 | x6 | x6 | x6 | x6 | x6 | x6 | x6 | x6 | x6 | %37
 x6 | x6 | x6 | x6 | E,3 x3 | x6 | x6 | x6 | x G,A, x3 | x6 | x6 | x6 | x6 | x6 | x6 | x6 | x6 | %54
 x3 B,,3 | x6 | x6 | x6 | x6 | x6 | x6 | x6 | x6 | x6 | x6 | x6 | x6 | x6 | x6 | x6 | x6 | x6 | %72
 x6 | x6 | x6 | x6 | x6 | x6 | x6 | x6 | x6 | x6 | x6 | x6 | x6 | x6 | x6 | x6 | x6 | x6 | x6 | %91
 x6 | x6 | x6 | x6 | x6 | x6 | x6 | x6 |] %99
V:4
 x6 | x6 | x6 | x6 | x6 | x6 | x6 | x6 | x6 | x6 | x6 || x6 | x6 | x6 | x6 | x6 | x6 | x6 | x6 | %19
 x6 | x6 | x6 | x6 | x6 | x6 | x6 | x6 | x6 | x6 | x6 | x6 | x6 | x6 | x6 | x6 | x6 | x6 | x6 | %38
 x6 | x6 | x6 | x6 | x6 | x6 | x6 | x6 | c2 B A x2 | x6 | x6 | x6 | x6 | x6 | x6 | x6 | x6 | x6 | %56
 x6 | x6 | x6 | x6 | x6 | x6 | x6 | x6 | x6 | x6 | x6 | x6 | x6 | x6 | x6 | x6 | x6 | x6 | x6 | %75
 x6 | x6 | x6 | x6 | x6 | x6 | x6 | x6 | x6 | x6 | x6 | x6 | x6 | x6 | x6 | x6 | x6 | x6 | x6 | %94
 x6 | x6 | x6 | x6 | x6 |] %99
V:5
 z6 | z6 | z6 | z6 | z6 | z6 | z6 | z6 | z6 | z6 | z6 ||!p! z/ (A,/C/F/C/A,/) ([Aa]3- | %12
 [Aa]gf ^efg) | c3 (c3- | cBA) (d3- | dcB)!f! z gf | ^d3 =d3 | c3- c (B2- | %18
 [^GB][^Ec]) ([FA]2 [GB])[B,EG] | [A,F]2 z z2 z | z6 | z6 | z6 | z6 |!p! [E-Bd]6 | ([EAc]6 | %26
 (B3) c3) | ([Ac]2 [GB]) z z2 | z ([=CA][A=c]) [ce] z2 | z ([B,G][GB]) [Ge] z2 | (e2 ^d) (=c2 A) | %31
 ([GB]3 [A=c]3) | [GB] z z z2 z | z6 | [ce]3 [Ac]2 ([Bd]/4[Ac]/4[GB]/4[Ac]/4) | %35
 [Bd][Bd][Bd] [Bd] z z | z/ (c/d/e/f/g/) (a/b/c'/)([Ac]/[Bd]/[^B^d]/) | %37
 ([ce]/[^B^d]/[ce]/[Bd]/[ce]/[Ac]/) [G=B] z z | [ec'e']3 [cac']2 ([b=d']/4[ac']/4[gb]/4[ac']/4) | %39
 .[bd'].[dbd'].[dbd'] [dbd'] z ([Gd] | [Ac]) z z [DFB] z z | z ([Ee][DG] [CE]) z z | %42
 ([Bd]2 [Ac]) [GB] z z | ([ce]2 [Bd]) [Ac] z z | z ([df]/[Bd]/)([Bd]/[GB]/) [EA] z z | %45
 ([B,D]2 [A,C]) (3[G,B,]/ d'/c'/ (3b/a/g/ (3f/e/d/ | %46
 ([CE]2 [B,D]) (3[A,C]/ e'/d'/ (3c'/b/a/ (3g/f/e/ | %47
 z/ ([A,F]/A/[A,F]/A/[A,F]/) z/ ([A,F]/A/[A,F]/A/[A,F]/) | E[EAc][EAc] [EAc][EAc][EAc] | %49
 [EAB][EAB][EAB] [DEGB][DEGB][DEGB] | (c3 B3) | (A3 G2) B | [FAf]2 z z2 z | z6 | z6 | z6 | z6 | %57
 z6 | z6 | z6 | z6 | z6 | z6 | ([Fd-f]6 | [=Gd=g]) z z z2 z | z6 | z6 | z/ (A,/C/F/C/A,/) ([Aa]3- | %68
 [Aa]gf ^efg) | c3 (c3- | cBA) (d3- | dcB)!f! z gf | ^d3 =d3 | c3- c (B2- | %74
 [^GB][^Ec]) ([FA]2 [GB])[B,EG] | [A,F]2 z z2 z | ([CAc]3 [^EGB]3- | %77
 [EGB][CA][B,G] [A,F][B,G][CA]) | [B,D]3 [Gd]3 | [^EG]2 z ([cf-a-]3 | [^Bfa]3 (^e2 d) | c6 | %82
 Bcd- dcB) | z/ F/z/A/z/c/ z/ A/z/F/z/C/ | z/ D/z/F/z/A/ z/ F/z/D/z/A,/ | %85
 z/ B,/z/D/z/C/ z/ B,/z/A,/z/G,/ | z/ C/z/F/z/A/ z/ C/z/^E/z/G/ | [A-cf-a-]6 | [Adfa]6 | (d'3 b3 | %90
 [fa]3 [^e^g]3) | [Acf] z z (a3 | agf ^efg) | c3 ([Aa]3- | [Aa][Gg][Ff] [^EB^e][Ff][G-Bg]) | %95
 c3 ([Aa]3- | [Aa][Gg][Ff] [^EB^e][Ff][Gg]) | .[Acf].[Acf] z!pp! .[cfc'].[cfc'] z | %98
 .[faf'].[faf'] z z2 z |] %99
V:6
 z6 | z6 | z6 | z6 | z6 | z6 | z6 | z6 | z6 | z6 | z6 || [F,,C,]3 F,,/(C,/F,/A,/F,/C,/) | %12
 F,,/(C,/F,/A,/F,/C,/) G,,/(C,/^E,/B,/E,/C,/) | A,,/(C,/^E,/B,/E,/C,/) A,,/(C,/F,/C/F,/C,/) | %14
 B,,/(D,/F,/B,/F,/D,/) B,,/(F,/B,/D/B,/F,/) | C,/(G,/B,/C/B,/G,/) F,/(A,/C/F/C/A,/) | %16
 ^B,,/(F,/G,/^D/G,/F,/) =B,,/(G,/B,/=D/B,/G,/) | ^A,,/(E,/F,/C/F,/E,/) B,,/(B,/=G,/D/F,/D/) | %18
 ^E,/(C/C,/C/F,/C/) D,/(D/B,,/D/C,/C/) | [F,C]2 z z2 z | z6 | z6 | z6 | z6 | [G,,G,]6 | %25
 ([A,,A,]3 C,3) | ([D,,D,]3 [^D,,^D,]3) | E,6- | E,6- | E,6 | (=C3 A,3) | [E,E]6- | %32
 ([G,B,]3 [A,=C]3) | [E,G,B,E]2 z z2 z | %34
 (3[A,,E,]/A,/^C/ (3E/C/A,/ (3E,/A,/C/ (3[A,,E,]/A,/C/ (3E/C/A,/ (3E,/A,/C/ | %35
 (3[A,,E,]/G,/B,/ (3E/B,/G,/ (3E,/G,/B,/ (3[A,,E,]/G,/B,/ (3E/B,/G,/ (3E,/G,/B,/ | %36
 [A,,A,]/(A,/B,/C/D/B,/) (C/G,/A,/)(C/D/^D/) | (E/^D/E/D/E/C/) x/ x/ z z | E,6- | %39
 .[G,,E,G,].[G,,E,G,].[G,,E,G,] [F,,E,G,] z ([E,B,] | [F,A,]) z z [D,,D,] z z | %41
 z (CB, ([A,,E,A,])[C,C][A,,A,]) | z G,A, E, z z | ([A,,A,][C,C][E,G,]) A, z z | %44
 z ([D,,D,][E,,E,]) [A,,,A,,] z z | E,3 (3E,/B,/A,/ (3G,/F,/E,/ (3D,/C,/B,,/ | %46
 ((F,2 G,)) (3F,/C/B,/ (3A,/G,/F,/ (3E,/D,/C,/ | ([D,B,]3 [^D,^B,]3) | ([A,-C]6 | %49
 [A,B,-]3 [G,B,]3) | A,,(C[K:treble]c')[K:bass] B,,[K:treble]dd' | %51
[K:bass] C,/>[K:treble]c/c'f[K:bass] C,/>[K:treble]B/b^e |[K:bass] [F,,C,F,]2 z z2 z | z6 | z6 | %55
 z6 | z6 | z6 | z6 | z6 | z6 | z6 | z6 | ([D,D-]6 | [B,,D]) z z z2 z | z6 | z6 | %67
 [F,,C,]3 F,,/(C,/F,/A,/F,/C,/) | F,,/(C,/F,/A,/F,/C,/) G,,/(C,/^E,/B,/E,/C,/) | %69
 A,,/(C,/^E,/B,/E,/C,/) A,,/(C,/F,/C/F,/C,/) | B,,/(D,/F,/B,/F,/D,/) B,,/(F,/B,/D/B,/F,/) | %71
 C,/(G,/B,/C/B,/G,/) F,/(A,/C/F/C/A,/) | ^B,,/(F,/G,/^D/G,/F,/) =B,,/(G,/B,/=D/B,/G,/) | %73
 ^A,,/(E,/F,/C/F,/E,/) B,,/(B,/=G,/D/F,/D/) | ^E,/(C/C,/C/F,/C/) D,/(D/B,,/D/C,/C/) | C,6- | C,6- | %77
 C,6 | F,3 B,3 | C2 z x3 | C,3- C,/C,/^E,/G,/C/C,/- | C,3- C,/C,/F,/=A,/C/C,/- | %82
 C,3- C,/C,/^E,/G,/C/C,/ | .F,.A,.C .A,.F,.C, | .D,.F,.A, .F,.D,.A,, | .B,,.D,.C, .B,,.A,,.G,, | %86
 .C,.F,.A, .C,.^E,.G, | F,,/F,/A,,/A,/C,/C/ A,,/A,/F,,/F,/C,,/C,/ | %88
 D,,/D,/F,,/F,/A,,/A,/ F,,/F,/D,,/D,/A,,,/A,,/ | %89
 B,,,/B,,/D,,/D,/=G,,/=G,/ B,,/B,/G,,/G,/B,,,/B,,/ | %90
 C,,/C,/F,,/F,/A,,/A,/ C,,/C,/^E,,/^E,/^G,,/^G,/ | F,/(A,/C/F/C/A,/) A,,/(C,/F,/A,/F,/C,/) | %92
 B,,/(F,/G,/D/G,/F,/) C,/(^E,/G,/C/G,/E,/) | A,,/(C,/F,/A,/F,/C,/) D,/(F,/A,/D/A,/F,/) | %94
 B,,/(F,/G,/D/G,/F,/) C,/(^E,/G,/C/G,/E,/) | A,,/(C,/F,/A,/F,/C,/) ^B,,/(F,/A,/^D/A,/F,/) | %96
 C,/[K:treble](C/F/A/F/C/)[K:bass] C,/[K:treble](C/^E/G/E/C/) | %97
[K:bass] .[F,CF].[F,CF] z .[F,A,F].[F,A,F] z | .[F,A,CF].[F,A,CF] z z z2 |] %99
V:7
 x6 | x6 | x6 | x6 | x6 | x6 | x6 | x6 | x6 | x6 | x6 || x6 | x3 (B3- | BAG FGA) | D3 (GAB) | %15
 ^E3 ([Aa]3- | [Aa][Gg][Ff] [^E^e][Ff][Gg]) | (=GFE) D(B=A) | x6 | x6 | x6 | x6 | x6 | x6 | x6 | %25
 x6 | [FA]6 | x6 | x6 | x6 | (A3 ^D3) | x6 | x6 | x6 | x6 | x6 | x6 | x6 | x6 | x6 | x6 | x6 | x6 | %43
 (E3 A) x2 | x (FE) x3 | x6 | x6 | x6 | x6 | x6 | A3- A G2 | G F2- F^EG | x6 | x6 | x6 | x6 | x6 | %57
 x6 | x6 | x6 | x6 | x6 | x6 | x6 | x6 | x6 | x6 | x6 | x3 (B3- | BAG FGA) | D3 (GAB) | %71
 ^E3 ([Aa]3- | [Aa][Gg][Ff] [^E^e][Ff][Gg]) | (=GFE) D(B=A) | x6 | x6 | x6 | x6 | x6 | x6 | %80
 x3 [=Bg-]3 | [^Ag]3 [=Af]3 | [Gf]3 [G^e]3 | x6 | x6 | x6 | x6 | x6 | x6 | [d=g]6 | c6 | x6 | %92
 [Bd]3 ([G-B]3 | GF).F x3 | x6 | GFF x3 | x6 | x6 | x6 |] %99
V:8
 x6 | x6 | x6 | x6 | x6 | x6 | x6 | x6 | x6 | x6 | x6 || x6 | x6 | x6 | x6 | x6 | x6 | %17
 x3 (B,,=G,F,) | (^E,C,F,) (D,B,,C,) | x6 | x6 | x6 | x6 | x6 | x6 | x6 | x6 | E,, z z E,, z z | %28
 E,, z z E,, z z | E,, z z E,, z z | =F, z z F, z z | x6 | [E,E]6- | x6 | x6 | x6 | x6 | %37
 E,E,E, [E,B,] x2 | [A,,A,]2 [A,,A,] [A,,A,]2 [A,,A,] | x6 | x6 | E,3- x3 | [E,,E,]6 | x6 | x6 | %45
 z (G,,A,,) x3 | (A,,C,E,) x3 | x6 | E,2 z E,2 z | E,2 z E,2 z | %50
 x2[K:treble] x[K:bass] x[K:treble] x2 |[K:bass] x3/4[K:treble] x9/4[K:bass] x3/4[K:treble] x9/4 | %52
[K:bass] x6 | x6 | x6 | x6 | x6 | x6 | x6 | x6 | x6 | x6 | x6 | x6 | x6 | x6 | x6 | x6 | x6 | x6 | %70
 x6 | x6 | x6 | x3 (B,,=G,F,) | (^E,C,F,) (D,B,,C,) | [F,,F,] z z [F,,F,] z z | %76
 [F,,F,] z z [G,,G,] z z | [A,,A,] z z A,, z z | B,, z z C, z2 | C,3- C,/C,/F,/A,/C/C,/- | x6 | %81
 x6 | x6 | x6 | x6 | x6 | x6 | x6 | x6 | x6 | x6 | x6 | x6 | x6 | x6 | x6 | %96
 x/[K:treble] x5/2[K:bass] x/[K:treble] x5/2 |[K:bass] x6 | x6 |] %99

